X: 3156
T: The NEW BRIG O'AYR
Q: "Reel."
R: Reel.
%R: reel
B: James Kerr "Merry Melodies" v.3 p.18 #156
Z: 2016 John Chambers <jc:trillian.mit.edu>
M: C
L: 1/8
K: F
|:\
F2Ac f2cA | cdcA cdcA |\
B2GB A2FA |[1 GAGF ECDE :|[2 GFEG F2c2 |:\
fgfe fcAc | defd cAFA |\
B2GB A2FA |[1 GAGF (Ec)c2 :|[2 GFEG F2C2 |]

%%sep 1 1 500
%%sep 1 1 500

